!!!SOCIAL_FUNCTION:	songs for success in ball game
!!!PDT:	1956
!!!OTL: No_221_Ball_Game_Song_(d).krn
!!!LANG: Non-Tone
!!!LING_GROUP: Muskogean
!!!REG: Florida
**kern
*staff1
=1-
*clefF4
*k[b-e-a-]
*M2/4
8.B-\L
16c\Jk
8B-\L
16A-\L
16G\JJ
=2
8G\L
8E-\J
8E-\
8r
=3
8.E-\L
16G\Jk
8E-\L
16G\L
16G\JJ
=4||
*M3/8
8G\L
8E-\
8E-\J
=5
16B-\LL
16B-\J
8A-\
16G\L
16E-\JJ
=6||
*M2/4
8G\L
8E-\J
8E-\
8r
=7
8.E-\L
16G\Jk
8E-\L
16G\L
16G\JJ
=8||
*M3/8
8G\L
8E-\
8E-;\J
=9||
*M2/4
8.B-\L
16c\Jk
16B-\LL
16A-\
16A-\
16G\JJ
=10
8B-\L
8A-\J
8A-\
8r
=11
8.B-\L
16c\Jk
16B-\LL
16A-\
16G\
16E-\JJ
=12||
*M3/4
8G\L
8E-\J
8E-\L
16B-\Jk
16r
8A-^\L
16G\L
16E-\JJ
=13||
*M2/4
8G\L
8E-\J
8E-\
8r
=14
8.E-\L
16G\Jk
8E-\L
16G\L
16G\JJ
=15||
*M3/8
8G\L
8E-\
8E-\J
=16||
*M2/4
8.B-\L
16c\Jk
16B-\LL
16A-\
16A-\JJ
16r
=17
8B-\L
16A-\L
16G\JJ
8A-\
8r
=18!|:
8.B-\L
16c\Jk
(16B-\LL
16A-\)
(16G\
16E-\JJ)
=19||
*M3/8
8G\L
8E-\
8E-;\J
=20
16.G\LL
32A-\K
16G\
16A-\
16G\
16E-\JJ
=21||
*M2/4
8G\L
8E-\J
8E-\
8r
=22
8.E-\L
16G\Jk
8E-\L
16G\L
16G\JJ
=23||
*M3/8
8G\L
8E-\
8E-\J
=24
16B-\
16r
8A-\L
16G\L
16E-\JJ
=25||
*M2/4
8G\L
8E-\J
8E-\
8r
=26
8.E-\L
16G\Jk
8E-\L
16G\L
16G\JJ
=27||
*M3/8
8G\L
8E-\
8E-\J
=28||
*M2/4
8.B-\L
16B-\Jk
(16B-\LL
16A-\)
(16A-\
16G\JJ)
=29
8B-\L
16A-\L
16G\JJ
8A-\
8r
==:|!
*-
